src/Pure-Dark/16/symbolic/categories/xapp-prefs-display-symbolic.svg

<?xml version="1.0" encoding="UTF-8" standalone="no"?>
<svg
   width="16"
   height="16"
   version="1.1"
   viewBox="0 0 16 16"
   id="svg2"
   sodipodi:docname="xapp-prefs-display-symbolic.svg"
   inkscape:version="1.4.2 (ebf0e940d0, 2025-05-08)"
   xmlns:inkscape="http://www.inkscape.org/namespaces/inkscape"
   xmlns:sodipodi="http://sodipodi.sourceforge.net/DTD/sodipodi-0.dtd"
   xmlns="http://www.w3.org/2000/svg"
   xmlns:svg="http://www.w3.org/2000/svg"
   xmlns:rdf="http://www.w3.org/1999/02/22-rdf-syntax-ns#"
   xmlns:cc="http://creativecommons.org/ns#"
   xmlns:dc="http://purl.org/dc/elements/1.1/">
  <sodipodi:namedview
     id="namedview2"
     pagecolor="#ffffff"
     bordercolor="#000000"
     borderopacity="0.25"
     inkscape:showpageshadow="2"
     inkscape:pageopacity="0.0"
     inkscape:pagecheckerboard="0"
     inkscape:deskcolor="#d1d1d1"
     inkscape:zoom="49.6875"
     inkscape:cx="8"
     inkscape:cy="8"
     inkscape:window-width="1920"
     inkscape:window-height="1010"
     inkscape:window-x="0"
     inkscape:window-y="0"
     inkscape:window-maximized="1"
     inkscape:current-layer="svg2" />
  <metadata
     id="metadata1">
    <rdf:RDF>
      <cc:Work
         rdf:about="">
        <dc:format>image/svg+xml</dc:format>
        <dc:type
           rdf:resource="http://purl.org/dc/dcmitype/StillImage" />
      </cc:Work>
    </rdf:RDF>
  </metadata>
  <defs
     id="defs1">
     <style
        id="current-color-scheme"
        type="text/css">
        .ColorScheme-Text { color:#f2f2f2; }
        .ColorScheme-NeutralText { color:#f67400; }
        .ColorScheme-PositiveText { color:#37c837; }
        .ColorScheme-NegativeText { color:#f44336; }
        .ColorScheme-Highlight { color:#3daee9; }
     </style>
  </defs>
  <path
     id="path1"
     style="fill:currentColor"
     class="ColorScheme-Text"
     d="M 7.9980469 2.0390625 C 4.2282298 2.0436425 0.92791376 4.4058447 -0.009765625 7.7695312 A 1.0419771 0.95987616 0 0 0 -0.009765625 8.2480469 C 0.93590357 11.604134 4.2360828 13.958638 8 13.960938 A 1.0419771 0.95987616 0 0 0 8.0019531 13.960938 C 11.77177 13.956338 15.072086 11.594156 16.009766 8.2304688 A 1.0419771 0.95987616 0 0 0 16.009766 7.75 C 15.064097 4.3939134 11.763917 2.0413625 8 2.0390625 A 1.0419771 0.95987616 0 0 0 7.9980469 2.0390625 z M 8 3 C 11.294727 3.00204 14.172218 5.0543993 15 7.9921875 C 14.179148 10.936575 11.299927 12.996 8 13 C 4.7052725 12.998 1.8277818 10.945601 1 8.0078125 C 1.820852 5.0634242 4.7000726 3.004 8 3 z M 8 5 A 3 3 0 0 0 5 8 A 3 3 0 0 0 8 11 A 3 3 0 0 0 11 8 A 3 3 0 0 0 8 5 z M 8 6 A 2 2 0 0 1 10 8 A 2 2 0 0 1 8 10 A 2 2 0 0 1 6 8 A 2 2 0 0 1 8 6 z " />
</svg>

<?xml version="1.0" encoding="UTF-8"?>
<svg width="16" height="16" version="1.1" viewBox="0 0 16 16" xmlns="http://www.w3.org/2000/svg" xmlns:cc="http://creativecommons.org/ns#" xmlns:dc="http://purl.org/dc/elements/1.1/" xmlns:rdf="http://www.w3.org/1999/02/22-rdf-syntax-ns#">
 <metadata>
  <rdf:RDF>
   <cc:Work rdf:about="">
    <dc:format>image/svg+xml</dc:format>
    <dc:type rdf:resource="http://purl.org/dc/dcmitype/StillImage"/>
    <dc:title/>
   </cc:Work>
  </rdf:RDF>
 </metadata>
 <defs>
  <style id="current-color-scheme" type="text/css">.ColorScheme-Text { color:#6e6e6e; } .ColorScheme-Highlight { color:#5294e2; }</style>
 </defs>
 <g transform="matrix(.90463 0 0 .83333 .76299 1.3333)" fill="#f2f2f2">
  <path transform="matrix(1.1054 0 0 1.2 -.84343 -1.6)" d="m7.998 2.0391c-3.7699 0.004577-7.0701 2.3668-8.0078 5.7305a1.042 0.95988 0 0 0 0 0.47852c0.94569 3.3561 4.2458 5.7106 8.0098 5.7129a1.042 0.95988 0 0 0 0.00195 0c3.7699-0.0046 7.0701-2.3668 8.0078-5.7305a1.042 0.95988 0 0 0 0-0.48047c-0.94569-3.3561-4.2458-5.7086-8.0098-5.7109a1.042 0.95988 0 0 0-0.00195 0zm0.00195 0.96094c3.2948 0.00204 6.1722 2.0544 7 4.9922-0.82087 2.9444-3.7 5.0038-7 5.0078-3.2948-2e-3 -6.1722-2.0544-7-4.9922 0.82087-2.9444 3.7-5.0038 7-5.0078z" color="#000000" color-rendering="auto" dominant-baseline="auto" fill="#f2f2f2" image-rendering="auto" shape-rendering="auto" solid-color="#000000" style="font-feature-settings:normal;font-variant-alternates:normal;font-variant-caps:normal;font-variant-ligatures:normal;font-variant-numeric:normal;font-variant-position:normal;isolation:auto;mix-blend-mode:normal;shape-padding:0;text-decoration-color:#000000;text-decoration-line:none;text-decoration-style:solid;text-indent:0;text-orientation:mixed;text-transform:none;white-space:normal"/>
 </g>
 <path d="m8 5a3 3 0 0 0-3 3 3 3 0 0 0 3 3 3 3 0 0 0 3-3 3 3 0 0 0-3-3zm0 1a2 2 0 0 1 2 2 2 2 0 0 1-2 2 2 2 0 0 1-2-2 2 2 0 0 1 2-2z" fill="#f2f2f2"/>
</svg>
